build/img/slogan.svg

<svg width="508" height="146" viewBox="0 0 508 146" fill="none" xmlns="http://www.w3.org/2000/svg">
<path d="M20.8942 64.219C29.7366 64.219 37.1353 61.7838 37.1353 51.4113V40.7683C37.1353 34.9056 34.3382 31.6585 30.1877 30.035C33.4359 28.6821 35.2405 25.2547 35.2405 21.7371V12.6273C35.2405 3.33722 29.6463 1.08234 21.2551 1.08234H1.04394V3.69801L4.47262 6.04308V58.8975L0.412344 61.6034V64.219H20.8942ZM27.7516 51.4113C27.7516 56.6426 26.2177 58.8073 20.8942 58.8073H11.6909V58.3563C13.2248 57.8152 13.5857 57.0034 13.5857 55.3799V33.0115H20.0821C25.6763 33.0115 27.7516 35.5369 27.7516 40.7683V51.4113ZM25.8568 21.7371C25.8568 24.9841 24.0522 28.5017 20.2626 28.5017H13.5857V6.31367H20.2626C23.962 6.31367 25.8568 9.19992 25.8568 12.6273V21.7371Z" fill="#BAA480"/>
<path d="M82.9734 50.0584H79.0034L75.9356 58.7171C70.7926 58.7171 65.7398 58.7171 60.5968 58.7171V58.2662C62.1307 57.725 62.4916 56.9132 62.4916 55.4701C62.4916 48.7957 62.4916 42.2114 62.4916 35.5369H71.1535L73.4995 40.3173H76.2063C76.2063 35.8977 76.2063 29.4939 76.2063 25.0743H73.4995L71.1535 30.035H62.4916C62.4916 22.0978 62.4916 14.1607 62.4916 6.31367H74.7627L77.2891 15.1528H81.8005V0.992146C70.7926 0.992146 60.687 0.992146 49.6792 0.992146V3.33723L53.1078 5.6823C53.1078 23.3606 53.1078 41.1291 53.1078 58.8975L49.0476 61.6034V64.219C60.4164 64.219 71.6949 64.219 82.9734 64.219V50.0584Z" fill="#BAA480"/>
<path d="M120.868 6.40386V59.4387L116.898 61.6034V64.219H134.041V61.6034L129.981 59.4387V5.95289L133.41 3.60781V0.992146H99.0327V3.60781L102.822 6.31367L97.6793 54.4779C97.1379 60.3406 94.1604 60.2505 91.1828 59.7995L90.7317 64.219C98.5816 66.4739 103.905 63.9485 104.627 55.1995L109.589 6.40386H120.868Z" fill="#BAA480"/>
<path d="M183.423 16.8665C183.423 6.67445 176.385 0 165.287 0C154.279 0 147.241 6.76464 147.241 16.8665V48.2545C147.241 58.3563 154.279 65.121 165.287 65.121C176.385 65.121 183.423 58.4465 183.423 48.2545V16.8665ZM156.625 16.8665C156.625 9.74109 159.332 6.04308 165.287 6.04308C171.332 6.04308 174.13 10.9136 174.13 16.8665V48.2545C174.13 54.1172 171.332 59.0779 165.287 59.0779C159.332 59.0779 156.625 55.2897 156.625 48.2545V16.8665Z" fill="#BAA480"/>
<path d="M233.443 0.811758H227.217L226.495 4.23918H226.224C223.518 1.26273 219.457 0.360782 215.577 0.360782C204.931 0.360782 198.344 6.40386 198.344 17.1371C198.344 20.9253 198.344 44.6467 198.344 48.4349C198.344 59.8897 206.104 65.2112 216.209 65.2112C226.315 65.2112 233.984 60.3406 233.984 49.1564V45.729H224.6V49.0662C224.6 55.4701 222.706 59.2583 216.119 59.2583C210.705 59.2583 207.728 55.9211 207.728 48.4349C207.728 44.6467 207.728 20.9253 207.728 17.1371C207.728 9.19992 211.607 6.31367 215.848 6.31367C222.345 6.40386 224.059 11.094 224.059 16.7763V18.49H233.443V0.811758Z" fill="#BAA480"/>
<path d="M270.256 3.60781L273.594 6.13328L262.135 36.3487L258.436 48.2545C258.436 34.8154 258.436 19.392 258.436 5.95289L261.774 3.60781V1.08234H245.894V3.60781L249.233 5.95289C249.233 23.6312 249.233 41.2192 249.233 58.8975L245.263 61.6936V64.219C250.496 64.219 257.173 64.219 262.406 64.219V61.6936L258.616 59.0779L269.624 30.1252L273.594 17.7685C273.594 30.8468 273.685 45.8192 273.685 58.8975L269.624 61.6936V64.219C274.858 64.219 281.534 64.219 286.768 64.219V61.6936L282.798 58.8975C282.798 41.2192 282.798 23.6312 282.798 5.95289L286.136 3.60781V1.08234H270.256V3.60781Z" fill="#BAA480"/>
<path d="M311.301 6.40386H325.918V59.4387L321.948 61.6034V64.219H339.091V61.6034L335.031 59.4387V5.95289L338.459 3.60781V0.992146H298.759V3.60781L302.188 5.95289V59.4387L298.127 61.6034V64.219H315.361V61.6034L311.301 59.4387V6.40386Z" fill="#BAA480"/>
<path d="M384.389 50.0584H380.419L377.351 58.7171C372.208 58.7171 367.156 58.7171 362.013 58.7171V58.2662C363.546 57.725 363.907 56.9132 363.907 55.4701C363.907 48.7957 363.907 42.2114 363.907 35.5369H372.569L374.915 40.3173H377.622C377.622 35.8977 377.622 29.4939 377.622 25.0743H374.915L372.569 30.035H363.907C363.907 22.0978 363.907 14.1607 363.907 6.31367H376.178L378.705 15.1528H383.216V0.992146C372.208 0.992146 362.103 0.992146 351.095 0.992146V3.33723L354.524 5.6823C354.524 23.3606 354.524 41.1291 354.524 58.8975L350.463 61.6034V64.219C361.832 64.219 373.111 64.219 384.389 64.219V50.0584Z" fill="#BAA480"/>
<path d="M399.727 52.7642C399.185 58.176 396.749 59.0779 392.508 58.6269L391.967 73.5092H396.659L399.366 64.219C410.283 64.219 420.208 64.219 431.126 64.219L433.833 73.5092H438.525L437.893 58.6269H432.299V6.04308L435.728 3.69801V1.08234H400.719V3.69801L404.599 6.04308L399.727 52.7642ZM410.915 6.49406H423.186V58.6269H403.426V58.3563C406.133 56.823 406.223 54.6583 406.494 51.7721L410.915 6.49406Z" fill="#BAA480"/>
<path d="M467.036 58.7171H461.172C461.172 48.8858 461.172 39.8663 461.172 30.1252H466.946C472.991 30.1252 475.337 33.3723 475.337 39.1447V49.6074C475.337 55.3799 473.172 58.7171 467.036 58.7171ZM484.721 39.1447C484.721 27.8703 476.691 24.8939 466.766 24.8939H461.172C461.172 19.1214 461.172 12.1764 461.172 6.40386L465.141 3.69801V1.08234C459.998 1.08234 453.231 1.08234 447.998 1.08234V3.69801L452.058 6.40386C452.058 23.9017 452.058 41.8506 452.058 59.3485L448.63 61.6936V64.219H466.946C476.691 64.219 484.721 60.6112 484.721 49.6074V39.1447ZM504.03 5.95289L507.459 3.60781V0.992146H491.488V3.60781L494.917 5.95289C494.917 23.6312 494.917 41.2192 494.917 58.8975L490.857 61.6034V64.219C496.09 64.219 502.857 64.219 508 64.219V61.6034L504.03 58.8975C504.03 41.2192 504.03 23.6312 504.03 5.95289Z" fill="#BAA480"/>
<path d="M21.4103 106.716H17.6126L17.1723 108.807H17.0072C15.356 106.991 12.8792 106.441 10.5125 106.441C4.01787 106.441 0 110.128 0 116.675C0 118.986 0 133.456 0 135.766C0 142.754 4.73338 146 10.8978 146C17.0622 146 21.7405 143.029 21.7405 136.207V134.116H16.0164V136.152C16.0164 140.058 14.8606 142.369 10.8427 142.369C7.54039 142.369 5.72409 140.333 5.72409 135.766C5.72409 133.456 5.72409 118.986 5.72409 116.675C5.72409 111.833 8.09078 110.073 10.6776 110.073C14.6405 110.128 15.6862 112.989 15.6862 116.455V117.5H21.4103V106.716Z" fill="#BAA480"/>
<path d="M57.993 110.293L59.8643 116.62H62.5062L62.286 106.826H39.885L39.6649 116.62H42.3068L44.068 110.293H48.196C48.196 120.801 48.196 131.31 48.196 141.819L45.7742 143.524V145.395C48.9115 145.395 53.2045 145.395 56.3968 145.395V143.524L53.9751 141.819C53.9751 131.31 53.9751 120.801 53.9751 110.293H57.993Z" fill="#BAA480"/>
<path d="M80.8308 145.395C86.2247 145.395 90.7379 143.909 90.7379 137.582V131.09C90.7379 127.514 89.0317 125.533 86.4999 124.543C88.4813 123.717 89.5821 121.627 89.5821 119.481V113.924C89.5821 108.257 86.1697 106.881 81.051 106.881H68.7222V108.477L70.8137 109.907V142.149L68.3369 143.799V145.395H80.8308ZM85.0138 137.582C85.0138 140.773 84.0782 142.094 80.8308 142.094H75.2168V141.819C76.1525 141.488 76.3727 140.993 76.3727 140.003V126.358H80.3355C83.7479 126.358 85.0138 127.899 85.0138 131.09V137.582ZM83.858 119.481C83.858 121.461 82.7572 123.607 80.4456 123.607H76.3727V110.073H80.4456C82.7022 110.073 83.858 111.833 83.858 113.924V119.481Z" fill="#BAA480"/>
<path d="M121.176 116.51C121.176 110.293 116.883 106.221 110.113 106.221C103.398 106.221 99.1052 110.348 99.1052 116.51V135.656C99.1052 141.819 103.398 145.945 110.113 145.945C116.883 145.945 121.176 141.874 121.176 135.656V116.51ZM104.829 116.51C104.829 112.163 106.48 109.907 110.113 109.907C113.801 109.907 115.507 112.878 115.507 116.51V135.656C115.507 139.233 113.801 142.259 110.113 142.259C106.48 142.259 104.829 139.948 104.829 135.656V116.51Z" fill="#BAA480"/>
<path d="M144.423 108.422L146.459 109.962L139.469 128.394L137.213 135.656C137.213 127.459 137.213 118.05 137.213 109.852L139.249 108.422V106.881H129.562V108.422L131.599 109.852C131.599 120.636 131.599 131.365 131.599 142.149L129.177 143.854V145.395C132.369 145.395 136.442 145.395 139.634 145.395V143.854L137.323 142.259L144.037 124.598L146.459 117.06C146.459 125.038 146.514 134.171 146.514 142.149L144.037 143.854V145.395C147.23 145.395 151.303 145.395 154.495 145.395V143.854L152.073 142.149C152.073 131.365 152.073 120.636 152.073 109.852L154.11 108.422V106.881H144.423V108.422Z" fill="#BAA480"/>
<path d="M167.754 142.259C167.754 134.226 167.754 126.248 167.754 118.215L167.479 111.118H167.754C169.79 122.012 171.552 132.355 173.368 143.304C173.533 144.349 174.083 144.845 175.239 144.845H179.807L185.862 110.733H186.082L185.917 116.235C185.917 124.873 185.917 133.511 185.917 142.149L183.495 143.799V145.395C186.632 145.395 190.87 145.395 194.008 145.395V143.799L191.586 142.149C191.586 131.365 191.586 120.636 191.586 109.852L193.732 108.422V106.881C190.595 106.881 188.889 106.881 185.752 106.881C183.66 106.826 182.945 107.212 182.504 109.247L177.606 138.297H177.496C176.23 127.514 175.019 120.251 172.983 109.412C172.487 107.322 171.662 106.881 169.625 106.881H161.644V108.422L163.846 109.852C163.846 120.636 163.846 131.475 163.846 142.259L161.534 143.689V145.395C164.231 145.395 167.369 145.395 170.066 145.395V143.689L167.754 142.259Z" fill="#BAA480"/>
<path d="M221.522 109.027C220.641 107.046 220.146 106.826 218.55 106.826H213.541V108.257L215.138 109.247L221.962 126.853L214.147 142.754L212.276 143.799V145.395H219.981V143.799L218.055 142.809L223.559 131.42L228.292 143.194C229.173 145.285 229.833 145.395 231.429 145.395H236.548V144.019L234.566 142.864L227.191 124.102L234.346 109.412L236.218 108.367V106.826H228.622V108.367L230.549 109.357L225.54 119.756L221.522 109.027Z" fill="#BAA480"/>
<path d="M252.227 113.319H252.282L256.575 131.86H247.934L252.227 113.319ZM247.218 134.996H257.345L259.162 142.754L257.621 143.964V145.395H266.977V143.689L264.996 142.479L256.135 106.606H250.465C247.658 117.94 244.576 131.255 241.824 142.644L239.843 143.689V145.395H247.328V143.689L245.402 142.699L247.218 134.996Z" fill="#BAA480"/>
<path d="M283.323 110.238C287.065 110.238 288.386 112.273 288.386 115.794V122.672C288.386 126.193 286.955 128.174 283.268 128.174H279.745C279.745 122.232 279.745 116.235 279.745 110.238H283.323ZM294.11 115.794C294.11 109.082 289.212 106.826 283.268 106.826H272.095V108.422L274.186 109.852C274.186 120.526 274.186 131.475 274.186 142.149L271.709 143.799V145.395C274.902 145.395 279.03 145.395 282.167 145.395V143.799L279.745 142.149C279.745 138.627 279.745 134.886 279.745 131.365H283.158C289.212 131.365 294.11 129.549 294.11 122.672V115.794Z" fill="#BAA480"/>
<path d="M309.143 113.319H309.198L313.491 131.86H304.85L309.143 113.319ZM304.134 134.996H314.262L316.078 142.754L314.537 143.964V145.395H323.894V143.689L321.912 142.479L313.051 106.606H307.382C304.575 117.94 301.493 131.255 298.741 142.644L296.759 143.689V145.395H304.245V143.689L302.318 142.699L304.134 134.996Z" fill="#BAA480"/>
<path d="M352.843 106.826C350.751 106.826 348.33 106.551 346.568 107.762C341.56 111.283 343.596 123.442 336.606 123.442V109.852L338.698 108.422V106.826H328.956V108.422L331.047 109.852C331.047 120.636 331.047 131.365 331.047 142.149L328.626 143.799V145.395C331.763 145.395 335.891 145.395 339.083 145.395V143.799L336.606 142.149C336.606 136.922 336.606 131.75 336.606 126.523H338.258C341.725 126.523 342.991 129.274 343.706 132.685L345.303 140.333C345.963 143.414 347.174 145.725 350.696 145.725C351.687 145.725 353.283 145.615 354.384 145.01V142.864C352.678 143.249 351.522 141.433 351.137 139.618L349.431 131.585C348.66 128.064 347.119 124.653 344.257 124.377V124.267C346.789 123.442 348.495 114.474 349.706 111.613C350.421 109.907 350.972 108.917 352.843 108.972V106.826Z" fill="#BAA480"/>
<path d="M376.918 110.293L378.789 116.62H381.431L381.211 106.826H358.81L358.59 116.62H361.232L362.993 110.293H367.121C367.121 120.801 367.121 131.31 367.121 141.819L364.699 143.524V145.395C367.836 145.395 372.129 145.395 375.322 145.395V143.524L372.9 141.819C372.9 131.31 372.9 120.801 372.9 110.293H376.918Z" fill="#BAA480"/>
<path d="M407.957 136.757H405.535L403.664 142.039C400.526 142.039 397.444 142.039 394.307 142.039V141.764C395.243 141.433 395.463 140.938 395.463 140.058C395.463 135.987 395.463 131.97 395.463 127.899H400.747L402.178 130.815H403.829C403.829 128.119 403.829 124.212 403.829 121.516H402.178L400.747 124.543H395.463C395.463 119.701 395.463 114.859 395.463 110.073H402.948L404.489 115.464H407.241V106.826C400.526 106.826 394.362 106.826 387.647 106.826V108.257L389.739 109.687C389.739 120.471 389.739 131.31 389.739 142.149L387.262 143.799V145.395C394.197 145.395 401.077 145.395 407.957 145.395V136.757Z" fill="#BAA480"/>
<path d="M426.339 110.238C430.082 110.238 431.403 112.273 431.403 115.794V122.672C431.403 126.193 429.972 128.174 426.284 128.174H422.761C422.761 122.232 422.761 116.235 422.761 110.238H426.339ZM437.127 115.794C437.127 109.082 432.228 106.826 426.284 106.826H415.111V108.422L417.202 109.852C417.202 120.526 417.202 131.475 417.202 142.149L414.726 143.799V145.395C417.918 145.395 422.046 145.395 425.183 145.395V143.799L422.761 142.149C422.761 138.627 422.761 134.886 422.761 131.365H426.174C432.228 131.365 437.127 129.549 437.127 122.672V115.794Z" fill="#BAA480"/>
<path d="M466.866 116.51C466.866 110.293 462.573 106.221 455.803 106.221C449.088 106.221 444.795 110.348 444.795 116.51V135.656C444.795 141.819 449.088 145.945 455.803 145.945C462.573 145.945 466.866 141.874 466.866 135.656V116.51ZM450.519 116.51C450.519 112.163 452.17 109.907 455.803 109.907C459.491 109.907 461.197 112.878 461.197 116.51V135.656C461.197 139.233 459.491 142.259 455.803 142.259C452.17 142.259 450.519 139.948 450.519 135.656V116.51Z" fill="#BAA480"/>
<path d="M481.196 142.259C481.196 134.226 481.196 126.248 481.196 118.215L480.921 111.118H481.196C483.233 122.012 484.994 132.355 486.81 143.304C486.975 144.349 487.526 144.845 488.682 144.845H493.25L499.304 110.733H499.524L499.359 116.235C499.359 124.873 499.359 133.511 499.359 142.149L496.938 143.799V145.395C500.075 145.395 504.313 145.395 507.45 145.395V143.799L505.028 142.149C505.028 131.365 505.028 120.636 505.028 109.852L507.175 108.422V106.881C504.038 106.881 502.331 106.881 499.194 106.881C497.103 106.826 496.387 107.212 495.947 109.247L491.048 138.297H490.938C489.672 127.514 488.462 120.251 486.425 109.412C485.93 107.322 485.104 106.881 483.068 106.881H475.087V108.422L477.289 109.852C477.289 120.636 477.289 131.475 477.289 142.259L474.977 143.689V145.395C477.674 145.395 480.811 145.395 483.508 145.395V143.689L481.196 142.259Z" fill="#BAA480"/>
</svg>

<svg width="508" height="146" fill="none" xmlns="http://www.w3.org/2000/svg"><path d="M20.894 64.219c8.843 0 16.241-2.435 16.241-12.808V40.768c0-5.862-2.797-9.11-6.947-10.733 3.248-1.353 5.052-4.78 5.052-8.298v-9.11c0-9.29-5.594-11.545-13.985-11.545H1.044v2.616l3.429 2.345v52.855l-4.06 2.705v2.616h20.481zm6.858-12.808c0 5.232-1.534 7.396-6.858 7.396h-9.203v-.45c1.534-.542 1.895-1.354 1.895-2.977V33.01h6.496c5.594 0 7.67 2.526 7.67 7.757v10.643zm-1.895-29.674c0 3.247-1.805 6.765-5.594 6.765h-6.677V6.314h6.677c3.699 0 5.594 2.886 5.594 6.313v9.11zM82.973 50.058h-3.97l-3.067 8.66h-15.34v-.452c1.535-.541 1.896-1.353 1.896-2.796V35.537h8.661l2.346 4.78h2.707V25.074H73.5l-2.346 4.961h-8.661V6.314h12.27l2.527 8.839H81.8V.993H49.68v2.344l3.428 2.345v53.216l-4.06 2.705v2.616h33.925v-14.16zM120.868 6.404v53.035l-3.97 2.164v2.616h17.143v-2.616l-4.06-2.164V5.953l3.429-2.345V.992H99.033v2.616l3.789 2.706-5.143 48.164c-.541 5.863-3.519 5.773-6.496 5.322l-.451 4.419c7.85 2.255 13.173-.27 13.895-9.02l4.962-48.795h11.279zM183.423 16.866C183.423 6.674 176.385 0 165.287 0c-11.008 0-18.046 6.765-18.046 16.866v31.389c0 10.101 7.038 16.866 18.046 16.866 11.098 0 18.136-6.674 18.136-16.866V16.866zm-26.798 0c0-7.125 2.707-10.823 8.662-10.823 6.045 0 8.843 4.87 8.843 10.823v31.389c0 5.862-2.798 10.823-8.843 10.823-5.955 0-8.662-3.788-8.662-10.824V16.867zM233.443.812h-6.226l-.722 3.427h-.271c-2.706-2.976-6.767-3.878-10.647-3.878-10.646 0-17.233 6.043-17.233 16.776v31.298c0 11.455 7.76 16.776 17.865 16.776 10.106 0 17.775-4.87 17.775-16.055V45.73H224.6v3.337c0 6.404-1.894 10.192-8.481 10.192-5.414 0-8.391-3.337-8.391-10.823V17.137c0-7.937 3.879-10.823 8.12-10.823 6.497.09 8.211 4.78 8.211 10.462v1.714h9.384V.812zM270.256 3.608l3.338 2.525-11.459 30.216-3.699 11.906V5.953l3.338-2.345V1.082h-15.88v2.526l3.339 2.345v52.944l-3.97 2.797v2.525h17.143v-2.525l-3.79-2.616 11.008-28.953 3.97-12.357c0 13.079.091 28.051.091 41.13l-4.061 2.796v2.525h17.144v-2.525l-3.97-2.797V5.953l3.338-2.345V1.082h-15.88v2.526zM311.301 6.404h14.617v53.035l-3.97 2.164v2.616h17.143v-2.616l-4.06-2.164V5.953l3.428-2.345V.992h-39.7v2.616l3.429 2.345v53.486l-4.061 2.164v2.616h17.234v-2.616l-4.06-2.164V6.404zM384.389 50.058h-3.97l-3.068 8.66h-15.338v-.452c1.533-.541 1.894-1.353 1.894-2.796V35.537h8.662l2.346 4.78h2.707V25.074h-2.707l-2.346 4.961h-8.662V6.314h12.271l2.527 8.839h4.511V.993h-32.121v2.344l3.429 2.345v53.216l-4.061 2.705v2.616h33.926v-14.16zM399.727 52.764c-.542 5.412-2.978 6.314-7.219 5.863l-.541 14.882h4.692l2.707-9.29h31.76l2.707 9.29h4.692l-.632-14.882h-5.594V6.043l3.429-2.345V1.082h-35.009v2.616l3.88 2.345-4.872 46.721zm11.188-46.27h12.271v52.133h-19.76v-.27c2.707-1.534 2.797-3.699 3.068-6.585l4.421-45.278zM467.036 58.717h-5.864V30.125h5.774c6.045 0 8.391 3.247 8.391 9.02v10.462c0 5.773-2.165 9.11-8.301 9.11zm17.685-19.572c0-11.275-8.03-14.251-17.955-14.251h-5.594V6.404l3.969-2.706V1.082h-17.143v2.616l4.06 2.706v52.944l-3.428 2.346v2.525h18.316c9.745 0 17.775-3.608 17.775-14.612V39.145zM504.03 5.953l3.429-2.345V.992h-15.971v2.616l3.429 2.345v52.944l-4.06 2.706v2.616H508v-2.616l-3.97-2.706V5.953zM21.41 106.716h-3.797l-.44 2.091h-.166c-1.651-1.816-4.128-2.366-6.495-2.366C4.018 106.441 0 110.128 0 116.675v19.091C0 142.754 4.733 146 10.898 146c6.164 0 10.843-2.971 10.843-9.793v-2.091h-5.725v2.036c0 3.906-1.155 6.217-5.173 6.217-3.303 0-5.119-2.036-5.119-6.603v-19.091c0-4.842 2.367-6.602 4.954-6.602 3.962.055 5.008 2.916 5.008 6.382v1.045h5.724v-10.784zM57.993 110.293l1.871 6.327h2.642l-.22-9.794H39.885l-.22 9.794h2.642l1.761-6.327h4.128v31.526l-2.422 1.705v1.871h10.623v-1.871l-2.422-1.705v-31.526h4.018zM80.83 145.395c5.395 0 9.908-1.486 9.908-7.813v-6.492c0-3.576-1.706-5.557-4.238-6.547 1.981-.826 3.082-2.916 3.082-5.062v-5.557c0-5.667-3.412-7.043-8.531-7.043H68.722v1.596l2.092 1.43v32.242l-2.477 1.65v1.596H80.83zm4.184-7.813c0 3.191-.936 4.512-4.183 4.512h-5.614v-.275c.936-.331 1.156-.826 1.156-1.816v-13.645h3.962c3.413 0 4.679 1.541 4.679 4.732v6.492zm-1.156-18.101c0 1.98-1.1 4.126-3.412 4.126h-4.073v-13.534h4.073c2.256 0 3.412 1.76 3.412 3.851v5.557zM121.176 116.51c0-6.217-4.293-10.289-11.063-10.289-6.715 0-11.008 4.127-11.008 10.289v19.146c0 6.163 4.293 10.289 11.008 10.289 6.77 0 11.063-4.071 11.063-10.289V116.51zm-16.347 0c0-4.347 1.651-6.603 5.284-6.603 3.688 0 5.394 2.971 5.394 6.603v19.146c0 3.577-1.706 6.603-5.394 6.603-3.633 0-5.284-2.311-5.284-6.603V116.51zM144.423 108.422l2.036 1.54-6.99 18.432-2.256 7.262v-25.804l2.036-1.43v-1.541h-9.687v1.541l2.037 1.43v32.297l-2.422 1.705v1.541h10.457v-1.541l-2.311-1.595 6.714-17.661 2.422-7.538c0 7.978.055 17.111.055 25.089l-2.477 1.705v1.541h10.458v-1.541l-2.422-1.705v-32.297l2.037-1.43v-1.541h-9.687v1.541zM167.754 142.259v-24.044l-.275-7.097h.275c2.036 10.894 3.798 21.237 5.614 32.186.165 1.045.715 1.541 1.871 1.541h4.568l6.055-34.112h.22l-.165 5.502v25.914l-2.422 1.65v1.596h10.513v-1.596l-2.422-1.65v-32.297l2.146-1.43v-1.541h-7.98c-2.092-.055-2.807.331-3.248 2.366l-4.898 29.05h-.11c-1.266-10.783-2.477-18.046-4.513-28.885-.496-2.09-1.321-2.531-3.358-2.531h-7.981v1.541l2.202 1.43v32.407l-2.312 1.43v1.706h8.532v-1.706l-2.312-1.43zM221.522 109.027c-.881-1.981-1.376-2.201-2.972-2.201h-5.009v1.431l1.597.99 6.824 17.606-7.815 15.901-1.871 1.045v1.596h7.705v-1.596l-1.926-.99 5.504-11.389 4.733 11.774c.881 2.091 1.541 2.201 3.137 2.201h5.119v-1.376l-1.982-1.155-7.375-18.762 7.155-14.69 1.872-1.045v-1.541h-7.596v1.541l1.927.99-5.009 10.399-4.018-10.729zM252.227 113.319h.055l4.293 18.541h-8.641l4.293-18.541zm-5.009 21.677h10.127l1.817 7.758-1.541 1.21v1.431h9.356v-1.706l-1.981-1.21-8.861-35.873h-5.67c-2.807 11.334-5.889 24.649-8.641 36.038l-1.981 1.045v1.706h7.485v-1.706l-1.926-.99 1.816-7.703zM283.323 110.238c3.742 0 5.063 2.035 5.063 5.556v6.878c0 3.521-1.431 5.502-5.118 5.502h-3.523v-17.936h3.578zm10.787 5.556c0-6.712-4.898-8.968-10.842-8.968h-11.173v1.596l2.091 1.43v32.297l-2.477 1.65v1.596h10.458v-1.596l-2.422-1.65v-10.784h3.413c6.054 0 10.952-1.816 10.952-8.693v-6.878zM309.143 113.319h.055l4.293 18.541h-8.641l4.293-18.541zm-5.009 21.677h10.128l1.816 7.758-1.541 1.21v1.431h9.357v-1.706l-1.982-1.21-8.861-35.873h-5.669c-2.807 11.334-5.889 24.649-8.641 36.038l-1.982 1.045v1.706h7.486v-1.706l-1.927-.99 1.816-7.703zM352.843 106.826c-2.092 0-4.513-.275-6.275.936-5.008 3.521-2.972 15.68-9.962 15.68v-13.59l2.092-1.43v-1.596h-9.742v1.596l2.091 1.43v32.297l-2.421 1.65v1.596h10.457v-1.596l-2.477-1.65v-15.626h1.652c3.467 0 4.733 2.751 5.448 6.162l1.597 7.648c.66 3.081 1.871 5.392 5.393 5.392.991 0 2.587-.11 3.688-.715v-2.146c-1.706.385-2.862-1.431-3.247-3.246l-1.706-8.033c-.771-3.521-2.312-6.932-5.174-7.208v-.11c2.532-.825 4.238-9.793 5.449-12.654.715-1.706 1.266-2.696 3.137-2.641v-2.146zM376.918 110.293l1.871 6.327h2.642l-.22-9.794H358.81l-.22 9.794h2.642l1.761-6.327h4.128v31.526l-2.422 1.705v1.871h10.623v-1.871l-2.422-1.705v-31.526h4.018zM407.957 136.757h-2.422l-1.871 5.282h-9.357v-.275c.936-.331 1.156-.826 1.156-1.706v-12.159h5.284l1.431 2.916h1.651v-9.299h-1.651l-1.431 3.027h-5.284v-14.47h7.485l1.541 5.391h2.752v-8.638h-19.594v1.431l2.092 1.43v32.462l-2.477 1.65v1.596h20.695v-8.638zM426.339 110.238c3.743 0 5.064 2.035 5.064 5.556v6.878c0 3.521-1.431 5.502-5.119 5.502h-3.523v-17.936h3.578zm10.788 5.556c0-6.712-4.899-8.968-10.843-8.968h-11.173v1.596l2.091 1.43v32.297l-2.476 1.65v1.596h10.457v-1.596l-2.422-1.65v-10.784h3.413c6.054 0 10.953-1.816 10.953-8.693v-6.878zM466.866 116.51c0-6.217-4.293-10.289-11.063-10.289-6.715 0-11.008 4.127-11.008 10.289v19.146c0 6.163 4.293 10.289 11.008 10.289 6.77 0 11.063-4.071 11.063-10.289V116.51zm-16.347 0c0-4.347 1.651-6.603 5.284-6.603 3.688 0 5.394 2.971 5.394 6.603v19.146c0 3.577-1.706 6.603-5.394 6.603-3.633 0-5.284-2.311-5.284-6.603V116.51zM481.196 142.259v-24.044l-.275-7.097h.275c2.037 10.894 3.798 21.237 5.614 32.186.165 1.045.716 1.541 1.872 1.541h4.568l6.054-34.112h.22l-.165 5.502v25.914l-2.421 1.65v1.596h10.512v-1.596l-2.422-1.65v-32.297l2.147-1.43v-1.541h-7.981c-2.091-.055-2.807.331-3.247 2.366l-4.899 29.05h-.11c-1.266-10.783-2.476-18.046-4.513-28.885-.495-2.09-1.321-2.531-3.357-2.531h-7.981v1.541l2.202 1.43v32.407l-2.312 1.43v1.706h8.531v-1.706l-2.312-1.43z" fill="#BAA480"/></svg>
